X:267
T: Der junge Husare (31), S. 115f
N: T0156
O: Luxemburg
S: Singendes Volk, Esch-Alzette 1937 posth.]
N: Blascheid, fff Hitting, 1902
R: Liebeslieder]
M: 6/8
L: 1/16
K: E
A2 | A2A2AAA2=G2A2 | =G4=F2E4
G2 | =G2E2G2G4=F2 | E8z2
A2 | A2A2AAA2=G2A2 | =G4=F2E4
G2 | =G2E2G2G4=F2 | E8z2
A2 | A2A2A2A2=G2A2 | =G4=F2E4
G2 | =G2E2G2G4=F2 | E8z2
A2 | A2A2A2A2=G2A2 | =G4=F2E4
G2 | =G2E2G2G4=F2 | E8z2

@@@ Tune index: 8321
